build/images/icons/arrow-next-nav.svg

<svg xmlns="http://www.w3.org/2000/svg" width="194" height="44" viewBox="0 0 194 44">
  <g id="Group_1" data-name="Group 1" transform="translate(-835 -4617)">
    <path id="Rectangle" d="M0,6A6,6,0,0,1,6,0H166.686a8,8,0,0,1,5.657,2.343L190,20,172.343,37.657A8,8,0,0,1,166.686,40H6a6,6,0,0,1-6-6Z" transform="translate(839 4621)" fill="#c4d2e1"/>
    <g id="Rectangle_Copy" data-name="Rectangle Copy" transform="translate(835 4617)" fill="none" stroke-miterlimit="10">
      <path d="M0,6A6,6,0,0,1,6,0H166.686a8,8,0,0,1,5.657,2.343L190,20,172.343,37.657A8,8,0,0,1,166.686,40H6a6,6,0,0,1-6-6Z" stroke="none"/>
      <path d="M 6 1 C 3.242996215820313 1 1 3.243000030517578 1 6 L 1 34 C 1 36.75699996948242 3.242996215820313 39 6 39 L 166.6862945556641 39 C 168.5560607910156 39 170.3139190673828 38.27186965942383 171.6360321044922 36.94973754882813 L 188.5857849121094 20 L 171.6360321044922 3.050262451171875 C 170.3138885498047 1.728130340576172 168.5560607910156 1 166.6862945556641 1 L 6 1 M 6 0 L 166.6862945556641 0 C 168.8080291748047 0 170.8428344726563 0.8428688049316406 172.3431396484375 2.343158721923828 L 190 20 L 172.3431396484375 37.65684127807617 C 170.8428344726563 39.15715789794922 168.8080291748047 40 166.6862945556641 40 L 6 40 C 2.686294555664063 40 0 37.3137092590332 0 34 L 0 6 C 0 2.686290740966797 2.686294555664063 0 6 0 Z" stroke="none" fill="#94acc4"/>
    </g>
  </g>
</svg>

<svg xmlns="http://www.w3.org/2000/svg" viewBox="0 0 194 44"><g data-name="Group 1"><path d="M4 10a6 6 0 016-6h160.686a8 8 0 015.657 2.343L194 24l-17.657 17.657A8 8 0 01170.686 44H10a6 6 0 01-6-6z" fill="#c4d2e1"/><g data-name="Rectangle Copy" fill="none" stroke-miterlimit="10"><path d="M0 6a6 6 0 016-6h160.686a8 8 0 015.657 2.343L190 20l-17.657 17.657A8 8 0 01166.686 40H6a6 6 0 01-6-6z"/><path d="M6 1C3.243 1 1 3.243 1 6v28c0 2.757 2.243 5 5 5h160.686c1.87 0 3.628-.728 4.95-2.05L188.586 20l-16.95-16.95a6.954 6.954 0 00-4.95-2.05H6m0-1h160.686a8 8 0 015.657 2.343L190 20l-17.657 17.657A8 8 0 01166.686 40H6a6 6 0 01-6-6V6a6 6 0 016-6z" fill="#94acc4"/></g></g></svg>
